X:1
T:O to Be Like Thee!
T:O to Be Like Thee!
T:William James Kirkpatrick
T:Thomas Obediah Chisholm, 1897
T:Public Domain Courtesy of the Cyber Hymnal™
T:Public Domain Courtesy of the Cyber Hymnal™
C:William James Kirkpatrick
Z:Public Domain
Z:Courtesy of the Cyber Hymnal™
%%score ( 1 2 ) 3
L:1/8
Q:1/4=110
M:9/8
K:D
V:1 treble 
V:2 treble 
V:3 bass 
V:1
 D[DF][FA] | [FA]3 [FA]3 [^EB][Ec][Ed] | [FA]3 [DF]3 D[DF][FA] | [FA]3 [DF]3 [DF][EG][DF] | %4
w: 1.~O to be|like Thee! bless- èd Re-|deem- er, This is my|con- stant long- ing and|
w: 2.~O to be|like Thee! full of com-|pas- sion, Lov- ing, for-|giv- ing, ten- der and|
w: 3.~O to be|like Thee! low- ly in|spir- it, Ho- ly and|harm- less, pa- tient and|
w: 4.~O to be|like Thee! Lord, I am|com- ing Now to re-|ceive a- noint- ing di-|
w: 5.~O to be|like Thee! while I am|plead- ing, Pour out Thy|Spir- it, fill with Thy|
 [CE]6 D[DF][FA] | [FA]3 [FA]3 [^EB][Ec][Ed] | [FA]3 [DF]3 [FA][EG][DF] | %7
w: prayer; Glad- ly I’ll|for- feit all of earth’s|trea- sures, Je- sus, Thy|
w: kind, Help- ing the|help- less, cheer- ing the|faint- ing, Seek- ing the|
w: brave; Meek- ly en-|dur- ing cru- el re-|proach- es, Will- ing to|
w: vine; All that I|am and have I am|bring- ing, Lord, from this|
w: love; Make me a|tem- ple meet for Thy|dwell- ing, Fit me for|
 [CE]3 [^Gd]3 [Gd][Gc][GB] | !fermata!A6 ||"^Refrain" [FA][^E^G][FA] | [GB]3 [DG]3 [Bd][Ac][GB] | %11
w: per- fect like- ness to|wear.|||
w: wan- dering sin- ner to|find.|||
w: suf- fer o- thers to|save.|O to be|like Thee! O to be|
w: mo- ment all shall be|Thine.|||
w: life and hea- ven a-|bove.|||
 [GB]3 [FA]3 [FA][EG][DF] | [EG]3 [EG]3 [GB][FA][EG] | [DF]6 [FA][^E^G][FA] | %14
w: |||
w: |||
w: like Thee, Bless- èd Re-|deem- er, pure as Thou|art; Come in Thy|
w: |||
w: |||
 [GB]3 [DG]3 [Bd][Ac][GB] | [GB]3 [FA]3 DFA | A3 [DF]3 [DF][A,D][A,E] | [A,D]6 |] %18
w: ||||
w: ||||
w: sweet- ness, come in Thy|full- ness; Stamp Thine own|im- age deep on my|heart.|
w: ||||
w: ||||
V:2
 D x2 | x9 | x9 | x9 | x9 | x9 | x9 | x9 | (E3 G3) || x3 | x9 | x9 | x9 | x9 | x9 | x9 | x9 | x6 |] %18
V:3
 [D,F,][D,A,][D,D] | [D,D]3 [D,A,]3 [D,^G,][D,G,][D,G,] | [D,A,]3 [D,A,]3 [D,F,][D,A,][D,D] | %3
 [D,D]3 [D,A,]3 [D,A,][C,A,][D,A,] | [A,,A,]6 [D,F,][D,A,][D,D] | %5
 [D,D]3 [D,A,]3 [D,^G,][D,G,][D,G,] | [D,A,]3 [D,A,]3 [D,A,][D,A,][D,A,] | %7
 [E,A,]3 [E,B,]3 [E,B,][E,C][E,D] | !fermata![A,,C]6 || [D,D][D,D][D,D] | %10
 [G,D]3 [G,B,]3 [G,D][G,D][G,D] | [D,D]3 [D,D]3 [D,A,][D,A,][D,A,] | %12
 [A,,C]3 [A,,C]3 [A,,A,][B,,A,][C,A,] | [D,A,]6 [D,D][D,D][D,D] | [G,D]3 [G,B,]3 [G,D][G,D][G,D] | %15
 [D,D]3 [D,D]3 D,F,A, | A,3 A,3 [A,,A,][A,,F,][A,,G,] | [D,F,]6 |] %18

